static/img/kroki/7baf4b320aca4aff5aa6a631587126c3.svg

<?xml version="1.0" encoding="us-ascii" standalone="no"?><svg xmlns="http://www.w3.org/2000/svg" xmlns:xlink="http://www.w3.org/1999/xlink" contentStyleType="text/css" height="352px" preserveAspectRatio="none" style="width:935px;height:352px;" version="1.1" viewBox="0 0 935 352" width="935px" zoomAndPan="magnify"><defs/><g><!--class azure_bastion_host--><g id="elem_azure_bastion_host"><rect codeLine="22" fill="#3D176E" height="39.7891" id="azure_bastion_host" rx="2.5" ry="2.5" style="stroke:#000D19;stroke-width:0.5;" width="203" x="7" y="306.37"/><ellipse cx="22" cy="326.2645" fill="#ADD1B2" rx="11" ry="11" style="stroke:#181818;stroke-width:1.0;"/><path d="M24.9688,331.9052 Q24.3906,332.202 23.75,332.3427 Q23.1094,332.4989 22.4063,332.4989 Q19.9063,332.4989 18.5781,330.8583 Q17.2656,329.202 17.2656,326.077 Q17.2656,322.952 18.5781,321.2958 Q19.9063,319.6395 22.4063,319.6395 Q23.1094,319.6395 23.75,319.7958 Q24.4063,319.952 24.9688,320.2489 L24.9688,322.9677 Q24.3438,322.3895 23.75,322.1239 Q23.1563,321.8427 22.5313,321.8427 Q21.1875,321.8427 20.5,322.9208 Q19.8125,323.9833 19.8125,326.077 Q19.8125,328.1708 20.5,329.2489 Q21.1875,330.3114 22.5313,330.3114 Q23.1563,330.3114 23.75,330.0458 Q24.3438,329.7645 24.9688,329.1864 L24.9688,331.9052 Z " fill="#000000"/><text fill="#D9B8FF" font-family="Helvetica" font-size="17" lengthAdjust="spacing" textLength="161" x="41" y="332.1498">azure_bastion_host</text></g><!--class azure_ddos_protection_plan--><g id="elem_azure_ddos_protection_plan"><rect codeLine="24" fill="#3D176E" height="39.7891" id="azure_ddos_protection_plan" rx="2.5" ry="2.5" style="stroke:#000D19;stroke-width:0.5;" width="274" x="288.5" y="7"/><ellipse cx="303.5" cy="26.8945" fill="#ADD1B2" rx="11" ry="11" style="stroke:#181818;stroke-width:1.0;"/><path d="M306.4688,32.5352 Q305.8906,32.832 305.25,32.9727 Q304.6094,33.1289 303.9063,33.1289 Q301.4063,33.1289 300.0781,31.4883 Q298.7656,29.832 298.7656,26.707 Q298.7656,23.582 300.0781,21.9258 Q301.4063,20.2695 303.9063,20.2695 Q304.6094,20.2695 305.25,20.4258 Q305.9063,20.582 306.4688,20.8789 L306.4688,23.5977 Q305.8438,23.0195 305.25,22.7539 Q304.6563,22.4727 304.0313,22.4727 Q302.6875,22.4727 302,23.5508 Q301.3125,24.6133 301.3125,26.707 Q301.3125,28.8008 302,29.8789 Q302.6875,30.9414 304.0313,30.9414 Q304.6563,30.9414 305.25,30.6758 Q305.8438,30.3945 306.4688,29.8164 L306.4688,32.5352 Z " fill="#000000"/><text fill="#D9B8FF" font-family="Helvetica" font-size="17" lengthAdjust="spacing" textLength="232" x="322.5" y="32.7798">azure_ddos_protection_plan</text></g><!--class azure_ip_allocation--><g id="elem_azure_ip_allocation"><rect codeLine="26" fill="#3D176E" height="39.7891" id="azure_ip_allocation" rx="2.5" ry="2.5" style="stroke:#000D19;stroke-width:0.5;" width="202" x="250.5" y="306.37"/><ellipse cx="265.5" cy="326.2645" fill="#ADD1B2" rx="11" ry="11" style="stroke:#181818;stroke-width:1.0;"/><path d="M268.4688,331.9052 Q267.8906,332.202 267.25,332.3427 Q266.6094,332.4989 265.9063,332.4989 Q263.4063,332.4989 262.0781,330.8583 Q260.7656,329.202 260.7656,326.077 Q260.7656,322.952 262.0781,321.2958 Q263.4063,319.6395 265.9063,319.6395 Q266.6094,319.6395 267.25,319.7958 Q267.9063,319.952 268.4688,320.2489 L268.4688,322.9677 Q267.8438,322.3895 267.25,322.1239 Q266.6563,321.8427 266.0313,321.8427 Q264.6875,321.8427 264,322.9208 Q263.3125,323.9833 263.3125,326.077 Q263.3125,328.1708 264,329.2489 Q264.6875,330.3114 266.0313,330.3114 Q266.6563,330.3114 267.25,330.0458 Q267.8438,329.7645 268.4688,329.1864 L268.4688,331.9052 Z " fill="#000000"/><text fill="#D9B8FF" font-family="Helvetica" font-size="17" lengthAdjust="spacing" textLength="160" x="284.5" y="332.1498">azure_ip_allocation</text></g><!--class azure_ip_group--><g id="elem_azure_ip_group"><rect codeLine="28" fill="#3D176E" height="39.7891" id="azure_ip_group" rx="2.5" ry="2.5" style="stroke:#000D19;stroke-width:0.5;" width="169" x="410" y="206.58"/><ellipse cx="425" cy="226.4745" fill="#ADD1B2" rx="11" ry="11" style="stroke:#181818;stroke-width:1.0;"/><path d="M427.9688,232.1152 Q427.3906,232.412 426.75,232.5527 Q426.1094,232.7089 425.4063,232.7089 Q422.9063,232.7089 421.5781,231.0683 Q420.2656,229.412 420.2656,226.287 Q420.2656,223.162 421.5781,221.5058 Q422.9063,219.8495 425.4063,219.8495 Q426.1094,219.8495 426.75,220.0058 Q427.4063,220.162 427.9688,220.4589 L427.9688,223.1777 Q427.3438,222.5995 426.75,222.3339 Q426.1563,222.0527 425.5313,222.0527 Q424.1875,222.0527 423.5,223.1308 Q422.8125,224.1933 422.8125,226.287 Q422.8125,228.3808 423.5,229.4589 Q424.1875,230.5214 425.5313,230.5214 Q426.1563,230.5214 426.75,230.2558 Q427.3438,229.9745 427.9688,229.3964 L427.9688,232.1152 Z " fill="#000000"/><text fill="#D9B8FF" font-family="Helvetica" font-size="17" lengthAdjust="spacing" textLength="127" x="444" y="232.3598">azure_ip_group</text></g><!--class azure_load_balancer--><g id="elem_azure_load_balancer"><rect codeLine="30" fill="#3D176E" height="39.7891" id="azure_load_balancer" rx="2.5" ry="2.5" style="stroke:#000D19;stroke-width:0.5;" width="212" x="506.5" y="306.37"/><ellipse cx="521.5" cy="326.2645" fill="#ADD1B2" rx="11" ry="11" style="stroke:#181818;stroke-width:1.0;"/><path d="M524.4688,331.9052 Q523.8906,332.202 523.25,332.3427 Q522.6094,332.4989 521.9063,332.4989 Q519.4063,332.4989 518.0781,330.8583 Q516.7656,329.202 516.7656,326.077 Q516.7656,322.952 518.0781,321.2958 Q519.4063,319.6395 521.9063,319.6395 Q522.6094,319.6395 523.25,319.7958 Q523.9063,319.952 524.4688,320.2489 L524.4688,322.9677 Q523.8438,322.3895 523.25,322.1239 Q522.6563,321.8427 522.0313,321.8427 Q520.6875,321.8427 520,322.9208 Q519.3125,323.9833 519.3125,326.077 Q519.3125,328.1708 520,329.2489 Q520.6875,330.3114 522.0313,330.3114 Q522.6563,330.3114 523.25,330.0458 Q523.8438,329.7645 524.4688,329.1864 L524.4688,331.9052 Z " fill="#000000"/><text fill="#D9B8FF" font-family="Helvetica" font-size="17" lengthAdjust="spacing" textLength="170" x="540.5" y="332.1498">azure_load_balancer</text></g><!--class azure_network_watcher--><g id="elem_azure_network_watcher"><rect codeLine="32" fill="#3D176E" height="39.7891" id="azure_network_watcher" rx="2.5" ry="2.5" style="stroke:#000D19;stroke-width:0.5;" width="244" x="684.5" y="206.58"/><ellipse cx="699.5" cy="226.4745" fill="#ADD1B2" rx="11" ry="11" style="stroke:#181818;stroke-width:1.0;"/><path d="M702.4688,232.1152 Q701.8906,232.412 701.25,232.5527 Q700.6094,232.7089 699.9063,232.7089 Q697.4063,232.7089 696.0781,231.0683 Q694.7656,229.412 694.7656,226.287 Q694.7656,223.162 696.0781,221.5058 Q697.4063,219.8495 699.9063,219.8495 Q700.6094,219.8495 701.25,220.0058 Q701.9063,220.162 702.4688,220.4589 L702.4688,223.1777 Q701.8438,222.5995 701.25,222.3339 Q700.6563,222.0527 700.0313,222.0527 Q698.6875,222.0527 698,223.1308 Q697.3125,224.1933 697.3125,226.287 Q697.3125,228.3808 698,229.4589 Q698.6875,230.5214 700.0313,230.5214 Q700.6563,230.5214 701.25,230.2558 Q701.8438,229.9745 702.4688,229.3964 L702.4688,232.1152 Z " fill="#000000"/><text fill="#D9B8FF" font-family="Helvetica" font-size="17" lengthAdjust="spacing" textLength="202" x="718.5" y="232.3598">azure_network_watcher</text></g><!--class azure_subnet--><g id="elem_azure_subnet"><rect codeLine="34" fill="#3D176E" height="39.7891" id="azure_subnet" rx="2.5" ry="2.5" style="stroke:#000D19;stroke-width:0.5;" width="154" x="150.5" y="206.58"/><ellipse cx="165.5" cy="226.4745" fill="#ADD1B2" rx="11" ry="11" style="stroke:#181818;stroke-width:1.0;"/><path d="M168.4688,232.1152 Q167.8906,232.412 167.25,232.5527 Q166.6094,232.7089 165.9063,232.7089 Q163.4063,232.7089 162.0781,231.0683 Q160.7656,229.412 160.7656,226.287 Q160.7656,223.162 162.0781,221.5058 Q163.4063,219.8495 165.9063,219.8495 Q166.6094,219.8495 167.25,220.0058 Q167.9063,220.162 168.4688,220.4589 L168.4688,223.1777 Q167.8438,222.5995 167.25,222.3339 Q166.6563,222.0527 166.0313,222.0527 Q164.6875,222.0527 164,223.1308 Q163.3125,224.1933 163.3125,226.287 Q163.3125,228.3808 164,229.4589 Q164.6875,230.5214 166.0313,230.5214 Q166.6563,230.5214 167.25,230.2558 Q167.8438,229.9745 168.4688,229.3964 L168.4688,232.1152 Z " fill="#000000"/><text fill="#D9B8FF" font-family="Helvetica" font-size="17" lengthAdjust="spacing" textLength="112" x="184.5" y="232.3598">azure_subnet</text></g><!--class azure_virtual_network--><g id="elem_azure_virtual_network"><rect codeLine="36" fill="#3D176E" height="39.7891" id="azure_virtual_network" rx="2.5" ry="2.5" style="stroke:#000D19;stroke-width:0.5;" width="231" x="310" y="106.79"/><ellipse cx="325" cy="126.6845" fill="#ADD1B2" rx="11" ry="11" style="stroke:#181818;stroke-width:1.0;"/><path d="M327.9688,132.3252 Q327.3906,132.622 326.75,132.7627 Q326.1094,132.9189 325.4063,132.9189 Q322.9063,132.9189 321.5781,131.2783 Q320.2656,129.622 320.2656,126.497 Q320.2656,123.372 321.5781,121.7158 Q322.9063,120.0595 325.4063,120.0595 Q326.1094,120.0595 326.75,120.2158 Q327.4063,120.372 327.9688,120.6689 L327.9688,123.3877 Q327.3438,122.8095 326.75,122.5439 Q326.1563,122.2627 325.5313,122.2627 Q324.1875,122.2627 323.5,123.3408 Q322.8125,124.4033 322.8125,126.497 Q322.8125,128.5908 323.5,129.6689 Q324.1875,130.7314 325.5313,130.7314 Q326.1563,130.7314 326.75,130.4658 Q327.3438,130.1845 327.9688,129.6064 L327.9688,132.3252 Z " fill="#000000"/><text fill="#D9B8FF" font-family="Helvetica" font-size="17" lengthAdjust="spacing" textLength="189" x="344" y="132.5698">azure_virtual_network</text></g><!--link azure_ddos_protection_plan to azure_virtual_network--><g id="link_azure_ddos_protection_plan_azure_virtual_network"><path codeLine="38" d="M425.5,47.22 C425.5,64.36 425.5,83.28 425.5,100.41 " fill="none" id="azure_ddos_protection_plan-to-azure_virtual_network" style="stroke:#1A83AF;stroke-width:2.0;"/><polygon fill="#1A83AF" points="425.5,106.41,429.5,97.41,425.5,101.41,421.5,97.41,425.5,106.41" style="stroke:#1A83AF;stroke-width:2.0;"/></g><!--link azure_subnet to azure_bastion_host--><g id="link_azure_subnet_azure_bastion_host"><path codeLine="39" d="M203.99,246.8 C183.13,263.94 157.4449,285.0398 136.5949,302.1798 " fill="none" id="azure_subnet-to-azure_bastion_host" style="stroke:#1A83AF;stroke-width:2.0;"/><polygon fill="#1A83AF" points="131.96,305.99,141.4525,303.3647,135.8224,302.8148,136.3722,297.1848,131.96,305.99" style="stroke:#1A83AF;stroke-width:2.0;"/></g><!--link azure_subnet to azure_ip_allocation--><g id="link_azure_subnet_azure_ip_allocation"><path codeLine="40" d="M252,246.8 C273.74,263.94 300.6199,285.1331 322.3399,302.2731 " fill="none" id="azure_subnet-to-azure_ip_allocation" style="stroke:#1A83AF;stroke-width:2.0;"/><polygon fill="#1A83AF" points="327.05,305.99,322.4628,297.2746,323.1249,302.8926,317.507,303.5547,327.05,305.99" style="stroke:#1A83AF;stroke-width:2.0;"/></g><!--link azure_subnet to azure_load_balancer--><g id="link_azure_subnet_azure_load_balancer"><path codeLine="41" d="M303.56,246.8 C370.95,263.91 463.0147,287.2929 530.4547,304.4229 " fill="none" id="azure_subnet-to-azure_load_balancer" style="stroke:#1A83AF;stroke-width:2.0;"/><polygon fill="#1A83AF" points="536.27,305.9,528.5317,299.8074,531.4239,304.6691,526.5623,307.5612,536.27,305.9" style="stroke:#1A83AF;stroke-width:2.0;"/></g><!--link azure_virtual_network to azure_bastion_host--><g id="link_azure_virtual_network_azure_bastion_host"><path codeLine="42" d="M309.65,146.07 C238.77,159.68 157.1,180.36 132.5,206.58 C107.04,233.71 104.9969,274.0682 106.3569,300.0982 " fill="none" id="azure_virtual_network-to-azure_bastion_host" style="stroke:#1A83AF;stroke-width:2.0;"/><polygon fill="#1A83AF" points="106.67,306.09,110.195,296.8936,106.4091,301.0968,102.2059,297.311,106.67,306.09" style="stroke:#1A83AF;stroke-width:2.0;"/></g><!--link azure_virtual_network to azure_ip_allocation--><g id="link_azure_virtual_network_azure_ip_allocation"><path codeLine="43" d="M417.02,147 C410.14,162.89 400.33,186.05 392.5,206.58 C379.21,241.41 367.249,276.9685 359.529,300.5185 " fill="none" id="azure_virtual_network-to-azure_ip_allocation" style="stroke:#1A83AF;stroke-width:2.0;"/><polygon fill="#1A83AF" points="357.66,306.22,364.2645,298.9138,359.2175,301.4688,356.6625,296.4218,357.66,306.22" style="stroke:#1A83AF;stroke-width:2.0;"/></g><!--link azure_virtual_network to azure_ip_group--><g id="link_azure_virtual_network_azure_ip_group"><path codeLine="44" d="M439.13,147.01 C451.23,164.15 465.3516,184.157 477.4416,201.297 " fill="none" id="azure_virtual_network-to-azure_ip_group" style="stroke:#1A83AF;stroke-width:2.0;"/><polygon fill="#1A83AF" points="480.9,206.2,478.981,196.5399,478.018,202.1142,472.4437,201.1511,480.9,206.2" style="stroke:#1A83AF;stroke-width:2.0;"/></g><!--link azure_virtual_network to azure_load_balancer--><g id="link_azure_virtual_network_azure_load_balancer"><path codeLine="45" d="M507.62,147.01 C540.24,158.85 575.03,177.52 596.5,206.58 C618.12,235.85 618.2391,274.588 615.7791,299.958 " fill="none" id="azure_virtual_network-to-azure_load_balancer" style="stroke:#1A83AF;stroke-width:2.0;"/><polygon fill="#1A83AF" points="615.2,305.93,620.0499,297.3581,615.6826,300.9533,612.0873,296.586,615.2,305.93" style="stroke:#1A83AF;stroke-width:2.0;"/></g><!--link azure_virtual_network to azure_network_watcher--><g id="link_azure_virtual_network_azure_network_watcher"><path codeLine="46" d="M500.77,147.01 C567.46,164.12 658.5084,187.4883 725.2484,204.6183 " fill="none" id="azure_virtual_network-to-azure_network_watcher" style="stroke:#1A83AF;stroke-width:2.0;"/><polygon fill="#1A83AF" points="731.06,206.11,723.337,199.9981,726.217,204.867,721.3481,207.7469,731.06,206.11" style="stroke:#1A83AF;stroke-width:2.0;"/></g><!--link azure_virtual_network to azure_subnet--><g id="link_azure_virtual_network_azure_subnet"><path codeLine="47" d="M386.38,147.01 C351.67,164.15 306.5989,186.4016 271.9189,203.5416 " fill="none" id="azure_virtual_network-to-azure_subnet" style="stroke:#1A83AF;stroke-width:2.0;"/><polygon fill="#1A83AF" points="266.54,206.2,276.3807,205.7983,271.0224,203.9846,272.8361,198.6264,266.54,206.2" style="stroke:#1A83AF;stroke-width:2.0;"/></g><!--SRC=[dP9FQy904CNl-HGBdWMjjEgba0hINgJKtae9a-p4BDdiXjcDGKk_UvDOI_wfeTTzlvbvxoMHuCWmIUs19PZuICOniL0f42JC9TBvIajDR1I64CxcRN6jbRq9R211zenoZrO4q2RU8n742erXTpNf2O9uHpfJ_BJU4YXJIAXiZLf9CCQrbeIVMQoPuKj_4OPjihrqDEFJ-GDsC4qSwHUPJ2PykcmZDqzTpVr7RCKHsRHUsaPRxDZidAYegovBecQo4_IiN_Ju2fmBjMFtjRUtaoTII8ttRGHSvoKTWZJrCyOYeRQ755UTLBXSy73U2xzSWeEoEGR7ZD3pmLYXbHTfOzcNyzqGETV6Iwb86LHGAa5r895w8AKEe4JwrD92sX6a1bvSBpO6HH5jLQ7DDSLU3ZQ8UdIJ-GNIUTuBiXd8ytYbNuao_XXDtSNCNN-E7_itE8rpFNozlvjmewgRTACXfp_WC4S3flgi3HkhFk_mYN-cQlqGmmTF_Vu0]--></g></svg>

<svg xmlns="http://www.w3.org/2000/svg" width="935" height="352" viewBox="0 0 935 352"><rect width="203" height="39.789" x="7" y="306.37" fill="#3D176E" rx="2.5" ry="2.5" style="stroke:#000d19;stroke-width:.5"/><circle cx="22" cy="326.264" r="11" fill="#ADD1B2" style="stroke:#181818;stroke-width:1"/><path d="M24.969 331.905q-.578.297-1.219.438-.64.156-1.344.156-2.5 0-3.828-1.64-1.312-1.657-1.312-4.782t1.312-4.781q1.328-1.656 3.828-1.656.703 0 1.344.156.656.156 1.219.453v2.719q-.625-.579-1.219-.844-.594-.281-1.219-.281-1.343 0-2.031 1.078-.687 1.062-.687 3.156t.687 3.172q.688 1.062 2.031 1.062.625 0 1.219-.265.594-.281 1.219-.86z"/><text x="41" y="332.15" fill="#D9B8FF" font-family="Helvetica" font-size="17" textLength="161">azure_bastion_host</text><rect width="274" height="39.789" x="288.5" y="7" fill="#3D176E" rx="2.5" ry="2.5" style="stroke:#000d19;stroke-width:.5"/><circle cx="303.5" cy="26.895" r="11" fill="#ADD1B2" style="stroke:#181818;stroke-width:1"/><path d="M306.469 32.535q-.578.297-1.219.438-.64.156-1.344.156-2.5 0-3.828-1.64-1.312-1.657-1.312-4.782t1.312-4.781q1.328-1.656 3.828-1.656.703 0 1.344.156.656.156 1.219.453v2.719q-.625-.578-1.219-.844-.594-.281-1.219-.281-1.344 0-2.031 1.078-.687 1.062-.687 3.156t.687 3.172q.688 1.062 2.031 1.062.625 0 1.219-.265.594-.281 1.219-.86z"/><text x="322.5" y="32.78" fill="#D9B8FF" font-family="Helvetica" font-size="17" textLength="232">azure_ddos_protection_plan</text><rect width="202" height="39.789" x="250.5" y="306.37" fill="#3D176E" rx="2.5" ry="2.5" style="stroke:#000d19;stroke-width:.5"/><circle cx="265.5" cy="326.264" r="11" fill="#ADD1B2" style="stroke:#181818;stroke-width:1"/><path d="M268.469 331.905q-.578.297-1.219.438-.64.156-1.344.156-2.5 0-3.828-1.64-1.312-1.657-1.312-4.782t1.312-4.781q1.328-1.656 3.828-1.656.703 0 1.344.156.656.156 1.219.453v2.719q-.625-.579-1.219-.844-.594-.281-1.219-.281-1.344 0-2.031 1.078-.687 1.062-.687 3.156t.687 3.172q.688 1.062 2.031 1.062.625 0 1.219-.265.594-.281 1.219-.86z"/><text x="284.5" y="332.15" fill="#D9B8FF" font-family="Helvetica" font-size="17" textLength="160">azure_ip_allocation</text><rect width="169" height="39.789" x="410" y="206.58" fill="#3D176E" rx="2.5" ry="2.5" style="stroke:#000d19;stroke-width:.5"/><circle cx="425" cy="226.475" r="11" fill="#ADD1B2" style="stroke:#181818;stroke-width:1"/><path d="M427.969 232.115q-.578.297-1.219.438-.64.156-1.344.156-2.5 0-3.828-1.64-1.312-1.657-1.312-4.782t1.312-4.781q1.328-1.656 3.828-1.656.703 0 1.344.156.656.156 1.219.453v2.719q-.625-.578-1.219-.844-.594-.281-1.219-.281-1.344 0-2.031 1.078-.687 1.062-.687 3.156t.687 3.172q.688 1.062 2.031 1.062.625 0 1.219-.265.594-.281 1.219-.86z"/><text x="444" y="232.36" fill="#D9B8FF" font-family="Helvetica" font-size="17" textLength="127">azure_ip_group</text><rect width="212" height="39.789" x="506.5" y="306.37" fill="#3D176E" rx="2.5" ry="2.5" style="stroke:#000d19;stroke-width:.5"/><circle cx="521.5" cy="326.264" r="11" fill="#ADD1B2" style="stroke:#181818;stroke-width:1"/><path d="M524.469 331.905q-.578.297-1.219.438-.64.156-1.344.156-2.5 0-3.828-1.64-1.312-1.657-1.312-4.782t1.312-4.781q1.328-1.656 3.828-1.656.703 0 1.344.156.656.156 1.219.453v2.719q-.625-.579-1.219-.844-.594-.281-1.219-.281-1.343 0-2.031 1.078-.687 1.062-.687 3.156t.687 3.172q.688 1.062 2.031 1.062.625 0 1.219-.265.594-.281 1.219-.86z"/><text x="540.5" y="332.15" fill="#D9B8FF" font-family="Helvetica" font-size="17" textLength="170">azure_load_balancer</text><rect width="244" height="39.789" x="684.5" y="206.58" fill="#3D176E" rx="2.5" ry="2.5" style="stroke:#000d19;stroke-width:.5"/><circle cx="699.5" cy="226.475" r="11" fill="#ADD1B2" style="stroke:#181818;stroke-width:1"/><path d="M702.469 232.115q-.578.297-1.219.438-.64.156-1.344.156-2.5 0-3.828-1.64-1.312-1.657-1.312-4.782t1.312-4.781q1.328-1.656 3.828-1.656.703 0 1.344.156.656.156 1.219.453v2.719q-.625-.578-1.219-.844-.594-.281-1.219-.281-1.343 0-2.031 1.078-.687 1.062-.687 3.156t.687 3.172q.688 1.062 2.031 1.062.625 0 1.219-.265.594-.281 1.219-.86z"/><text x="718.5" y="232.36" fill="#D9B8FF" font-family="Helvetica" font-size="17" textLength="202">azure_network_watcher</text><rect width="154" height="39.789" x="150.5" y="206.58" fill="#3D176E" rx="2.5" ry="2.5" style="stroke:#000d19;stroke-width:.5"/><circle cx="165.5" cy="226.475" r="11" fill="#ADD1B2" style="stroke:#181818;stroke-width:1"/><path d="M168.469 232.115q-.578.297-1.219.438-.64.156-1.344.156-2.5 0-3.828-1.64-1.312-1.657-1.312-4.782t1.312-4.781q1.328-1.656 3.828-1.656.703 0 1.344.156.656.156 1.219.453v2.719q-.625-.578-1.219-.844-.594-.281-1.219-.281-1.344 0-2.031 1.078-.687 1.062-.687 3.156t.687 3.172q.688 1.062 2.031 1.062.625 0 1.219-.265.594-.281 1.219-.86z"/><text x="184.5" y="232.36" fill="#D9B8FF" font-family="Helvetica" font-size="17" textLength="112">azure_subnet</text><rect width="231" height="39.789" x="310" y="106.79" fill="#3D176E" rx="2.5" ry="2.5" style="stroke:#000d19;stroke-width:.5"/><circle cx="325" cy="126.684" r="11" fill="#ADD1B2" style="stroke:#181818;stroke-width:1"/><path d="M327.969 132.325q-.578.297-1.219.438-.64.156-1.344.156-2.5 0-3.828-1.64-1.312-1.657-1.312-4.782t1.312-4.781q1.328-1.656 3.828-1.656.703 0 1.344.156.656.156 1.219.453v2.719q-.625-.579-1.219-.844-.594-.281-1.219-.281-1.344 0-2.031 1.078-.687 1.062-.687 3.156t.687 3.172q.688 1.062 2.031 1.062.625 0 1.219-.265.594-.281 1.219-.86z"/><text x="344" y="132.57" fill="#D9B8FF" font-family="Helvetica" font-size="17" textLength="189">azure_virtual_network</text><path fill="none" d="M425.5 47.22v53.19" style="stroke:#1a83af;stroke-width:2"/><path fill="#1A83AF" d="m425.5 106.41 4-9-4 4-4-4z" style="stroke:#1a83af;stroke-width:2"/><path fill="none" d="M203.99 246.8c-20.86 17.14-46.545 38.24-67.395 55.38" style="stroke:#1a83af;stroke-width:2"/><path fill="#1A83AF" d="m131.96 305.99 9.492-2.625-5.63-.55.55-5.63z" style="stroke:#1a83af;stroke-width:2"/><path fill="none" d="M252 246.8c21.74 17.14 48.62 38.333 70.34 55.473" style="stroke:#1a83af;stroke-width:2"/><path fill="#1A83AF" d="m327.05 305.99-4.587-8.715.662 5.618-5.618.662z" style="stroke:#1a83af;stroke-width:2"/><path fill="none" d="M303.56 246.8c67.39 17.11 159.455 40.493 226.895 57.623" style="stroke:#1a83af;stroke-width:2"/><path fill="#1A83AF" d="m536.27 305.9-7.738-6.093 2.892 4.862-4.862 2.892z" style="stroke:#1a83af;stroke-width:2"/><path fill="none" d="M309.65 146.07c-70.88 13.61-152.55 34.29-177.15 60.51-25.46 27.13-27.503 67.488-26.143 93.518" style="stroke:#1a83af;stroke-width:2"/><path fill="#1A83AF" d="m106.67 306.09 3.525-9.196-3.786 4.203-4.203-3.786z" style="stroke:#1a83af;stroke-width:2"/><path fill="none" d="M417.02 147c-6.88 15.89-16.69 39.05-24.52 59.58-13.29 34.83-25.251 70.389-32.971 93.939" style="stroke:#1a83af;stroke-width:2"/><path fill="#1A83AF" d="m357.66 306.22 6.604-7.306-5.047 2.555-2.554-5.047z" style="stroke:#1a83af;stroke-width:2"/><path fill="none" d="M439.13 147.01c12.1 17.14 26.222 37.147 38.312 54.287" style="stroke:#1a83af;stroke-width:2"/><path fill="#1A83AF" d="m480.9 206.2-1.919-9.66-.963 5.574-5.574-.963z" style="stroke:#1a83af;stroke-width:2"/><path fill="none" d="M507.62 147.01c32.62 11.84 67.41 30.51 88.88 59.57 21.62 29.27 21.74 68.008 19.28 93.378" style="stroke:#1a83af;stroke-width:2"/><path fill="#1A83AF" d="m615.2 305.93 4.85-8.572-4.367 3.595-3.596-4.367z" style="stroke:#1a83af;stroke-width:2"/><path fill="none" d="M500.77 147.01c66.69 17.11 157.738 40.478 224.478 57.608" style="stroke:#1a83af;stroke-width:2"/><path fill="#1A83AF" d="m731.06 206.11-7.723-6.112 2.88 4.869-4.869 2.88z" style="stroke:#1a83af;stroke-width:2"/><path fill="none" d="M386.38 147.01c-34.71 17.14-79.781 39.392-114.461 56.532" style="stroke:#1a83af;stroke-width:2"/><path fill="#1A83AF" d="m266.54 206.2 9.84-.402-5.358-1.813 1.814-5.359z" style="stroke:#1a83af;stroke-width:2"/></svg>
